!!!SOCIAL_FUNCTION:	songs connected with stories
!!!PDT:	1958
!!!OTL: No_46_The_Neglected_Wife_Goes_Away.krn
!!!REG: Northern California
!!!LANG: Non-Tone
!!!LING_GROUP: Penutian
**kern
*staff1
=1-
*clefF4
*k[f#]
*M5/8
8d\L
8d\J
4d\
8B\
=2
*M4/8
8c\
8B\
4A\
=3
*M7/8
8G\L
8G\J
4G\
8G\L
8G\
8E\J
=4
*M4/8
8G\
8E\
8E\
16D\
16r
=5!|:
*M5/8
8d\L
8d\J
4d\
8B\
=6
8c\L
8c\J
4d\
8B\
=7
(8c\L
8A\J)
4A\
8G\
=8
8A\L
8A\J
4c\
8A\
=9
(8A\L
8G\J)
4G\
8E\
=10
8G\L
8E\J
4E\
8r
=11
*M7/8
4c\
4A\
8G\L
8A\
8A\J
=12
*M5/8
4G\
8E\L
8G\
8G\J
=13
4G\
8E\L
8G\
8E\J
=14
*M3/8
8E\L
8D\
16D\Jk
16r
=15
*M5/8
8c\L
8B\J
4A\
8G\
=16
8A\L
8A\J
4c\
8A\
=17
8A\L
8A\J
4G\
8E\
=18
8G\L
8E\J
4E\
8r
=19
*M7/8
4c\
4A\
8G\L
8A\
8A\J
=20
*M5/8
4G\
8E\L
8G\
8G\J
=21
4G\
8E\L
8G\
8E\J
=22
8E\L
8D\
16D\Jk
16r
4r
==:|!
*-
